client/harbourIcon.svg

<?xml version="1.0" encoding="UTF-8" standalone="no"?>
<svg xmlns="http://www.w3.org/2000/svg" version="1.1" viewBox="0 0 128 128" height="128" width="128">
  <path id="sail1" style="fill:#4c96d1;stroke:none" d="m 58,41 c -1.5,17 -0.5,35 0,53 -12,-1.5 -20.5,-0 -26,3 z" />
  <path id="sail2" style="fill:#1d74ba;stroke:none" d="M 59,23.5 20.5,90.5 c 10,-4 19.5,-6 29.5,-3.5 -0.5,-26 4.5,-45 10,-63.5 z" />
  <path id="sail3" style="fill:#205da4;stroke:none" d="m 55,14 -42,61.5 C 23,69.5 33,65.5 43.5,68 43,47 48,29.5 55,14 Z" />
  <path id="hull1" style="fill:#2d3976;stroke:none" d="m 0.5,93 2,3 c 28,0 47,10 125.5,6 l -0.5,-2.5 C 98.5,103 53,99 0.5,93 Z" />
  <path id="hull2" style="fill:#9c1020;stroke:none" d="m 15,98 c 37,3.5 72.5,8.5 112.5,6 l -1.5,2.5 C 86,111.5 67.5,106.5 23,103.5 Z" />
  <path id="hull3" style="fill:#2d3976;stroke:none" d="m 25.5,105 51.5,4.5 c -14,1 -34,-3.5 -41.5,4 z" />
  <path id="vscode-border" style="fill:white;stroke:none" d="m 85,54.5 -15,-12 -7,3.4 0,30.6 7,3.5 15,-12 24,24 15.5,-6.5 0,-48.5 -15.5,-6.5 z" />
  <path id="vscode-fill" style="fill:#0271bc;stroke:none" d="M 109,31.5 85,55.5 70,43.5 l -6,3 0,29.5 6,3 15,-12 24,24 14.5,-6 0,-47.5 z m -0.1,17.5 0.2,25.1 L 93,61.5 109,49 Z M 70,52 l 9,9 -9.5,10 z" />
</svg>

<?xml version="1.0" encoding="UTF-8" standalone="no"?>
<svg xmlns="http://www.w3.org/2000/svg" version="1.1" viewBox="0 0 128 128" height="128" width="128">
  <path id="sail1" style="fill:#4c96d1;stroke:none" d="m 58,41 c -1.5,17 -0.5,35 0,53 -12,-1.5 -20.5,-0 -26,3 z" />
  <path id="sail2" style="fill:#1d74ba;stroke:none" d="M 59,23.5 20.5,90.5 c 10,-4 19.5,-6 29.5,-3.5 -0.5,-26 4.5,-45 10,-63.5 z" />
  <path id="sail3" style="fill:#205da4;stroke:none" d="m 55,14 -42,61.5 C 23,69.5 33,65.5 43.5,68 43,47 48,29.5 55,14 Z" />
  <path id="hull1" style="fill:#2d3976;stroke:none" d="m 0.5,93 2,3 c 28,0 47,10 125.5,6 l -0.5,-2.5 C 98.5,103 53,99 0.5,93 Z" />
  <path id="hull2" style="fill:#9c1020;stroke:none" d="m 15,98 c 37,3.5 72.5,8.5 112.5,6 l -1.5,2.5 C 86,111.5 67.5,106.5 23,103.5 Z" />
  <path id="hull3" style="fill:#2d3976;stroke:none" d="m 25.5,105 51.5,4.5 c -14,1 -34,-3.5 -41.5,4 z" />
  <path id="vscode-border" style="fill:white;stroke:none" d="M 85,54.5 L 70,42.5 63,45.9 63,76.5 70,80 85,68 109,92 124.5,85.5 124.5,37 109,30.5 z M 107.9,51 L 108.1,72.1 94,61.5 Z M 71,54 L 78,61 70.5,69 z" />
  <path id="vscode-fill" style="fill:#0271bc;stroke:none" d="M 109,31.5 L 85,55.5 70,43.5 64,46.5 64,76 70,79 85,67 109,91 123.5,85 123.5,37.5 z M 108.9,49 L 109.1,74.1 93,61.5 Z M 70,52 L 79,61 69.5,71 z" />
</svg>
